!!!!SEGMENT: pl-sa--305-a-vii-65--005_lechleitner-ferdinand-simon--vespere-laudate-pueri.krn
!!!cenid: 17xx:398
!!!COM: Lechleitner, Ferdinand Simon
!!!COM-rism: pe30001903
!!!CDT: ~1700-~1800
!!!CNT:
!!!OTL: Vespere – Laudate pueri
!!!PDT:
!!!AGN: Sacred; Vespers
!!!SMS-siglum: PL-SA
!!!SMS-shelfmark: 305/A VII 65
!!!NIFC-rismID: 1001077319
!!!system-decoration: [(s1,s2)][(s3,s4,s5,s6)][(s7,s8)]s9
**kern	**fba	**kern	**kern	**kern	**text	**kern	**text	**kern	**text	**kern	**text	**kern	**kern
*part9	*part9	*part8	*part7	*part6	*part6	*part5	*part5	*part4	*part4	*part3	*part3	*part2	*part1
*staff9	*staff9	*staff8	*staff7	*staff6	*staff6	*staff5	*staff5	*staff4	*staff4	*staff3	*staff3	*staff2	*staff1
*I"Organo	*	*I"Violino Secundo	*I"Violino Primo	*I"Baſso	*	*I"Tenore	*	*I"Alto	*	*I"Canto	*	*I"Clarino 2do	*I"Clarino 1mo
*I'Org.	*	*I'vl 2	*I'vl 1	*I'B	*	*I'T	*	*I'A	*	*I'S	*	*I'clno 2	*I'clno 1
*clefF4	*	*clefG2	*clefG2	*clefF4	*	*clefC4	*	*clefC3	*	*clefC1	*	*clefG2	*clefG2
*	*	*	*	*	*	*	*	*	*	*	*	*ITrd1c2	*ITrd1c2
*k[]	*	*k[]	*k[]	*k[]	*	*k[]	*	*k[]	*	*k[]	*	*k[]	*k[]
*M2/4	*	*M2/4	*M2/4	*M2/4	*	*M2/4	*	*M2/4	*	*M2/4	*	*M2/4	*M2/4
=1	=1	=1	=1	=1	=1	=1	=1	=1	=1	=1	=1	=1	=1
!LO:TX:a:t=P:wszystkie caudy z prawej strony:problem	!	!LO:TX:a:t=P:wszystkie caudy z prawej strony:problem	!LO:TX:a:t=P:wszystkie caudy z prawej strony:problem	!	!	!	!	!	!	!	!	!	!
!	!	!	!	!	!	!	!	!	!	!	!	!LO:TX:a:Bi:t=Laudate Pueri \nTacet	!LO:TX:a:Bi:t=Laudate Pueri \nTacet
!	!	!	!	!LO:SIC:o=L:v:t='L' znajduje się przed kluczem i oznaczeniem metrum	!	!LO:SIC:o=L:v:t='L' znajduje się przed kluczem i oznaczeniem metrum	!	!LO:SIC:o=L:v:t='L' znajduje się przed kluczem i oznaczeniem metrum	!	!LO:SIC:o=L:v:t='L' znajduje się przed kluczem i oznaczeniem metrum	!	!	!
!LO:SIC:o=L:v:t='L' znajduje się przed kluczem i oznaczeniem metrum	!	!LO:SIC:o=L:v:t='L' znajduje się przed kluczem i oznaczeniem metrum	!LO:SIC:o=L:v:t='L' znajduje się przed kluczem i oznaczeniem metrum	!	!	!	!	!	!	!	!	!	!
!LO:TX:a:t=P:w źródle przy kluczu dwa kasowniki BB i B:problem	!	!	!	!	!	!	!	!	!	!	!	!	!
!LO:TX:b:Bi:t=audate pueri:rj	!	!	!LO:TX:b:Bi:t=audate Pueri	!	!	!LO:TX:b:Bi:t=audate	!	!	!	!	!	!	!
!LO:TX:a:Bi:t=alle&colon;	!	!	!LO:TX:a:Bi:t=alle&colon;	!	!	!	!	!	!	!	!	!	!
!	!	!	!	!LO:TX:a:Bi:t=Solo	!	!	!	!	!	!	!	!	!
!	!	!	!	!	!	!LO:N:vis=00	!	!LO:N:vis=00	!	!LO:N:vis=00	!	!	!
8C/L	.	8rff	8rdd	8rA	.	0r	.	0r	.	0r	.	2ryy	2ryy
8C/	.	8ee\L	8gg\L	8c\	Lau-	.	.	.	.	.	.	.	.
8D/	6	8dd\	8gg\	8B\	-da-	.	.	.	.	.	.	.	.
8E/J	6	8cc\J	8gg\J	8c\	-te	.	.	.	.	.	.	.	.
=2	=2	=2	=2	=2	=2	=2	=2	=2	=2	=2	=2	=2	=2
8F\L	6	16cc\LL	16ff\LL	8A\	pu-	.	.	.	.	.	.	2ryy	2ryy
.	.	16cc\	16ee\	.	.	.	.	.	.	.	.	.	.
8E\	.	16dd\	16ff\	16A\	-e-	.	.	.	.	.	.	.	.
.	.	16ee\JJ	16gg\JJ	16G\	-ri	.	.	.	.	.	.	.	.
8F\	6	16cc\LL	16ff\LL	8A\	do-	.	.	.	.	.	.	.	.
.	.	16dd\	16ff\	.	.	.	.	.	.	.	.	.	.
8D\J	.	16ee\	16gg\	8B\	-mi-	.	.	.	.	.	.	.	.
.	.	16dd\JJ	16ff\JJ	.	.	.	.	.	.	.	.	.	.
=3	=3	=3	=3	=3	=3	=3	=3	=3	=3	=3	=3	=3	=3
8E\L	6	8cc\L	8ee\L	8c\	-num	.	.	.	.	.	.	2ryy	2ryy
8C\	.	8ee\	8gg\	8E\	lau-	.	.	.	.	.	.	.	.
8D\	6	8dd\	8ff\	8F\	-da-	.	.	.	.	.	.	.	.
8E\J	6	8cc\J	8ee\J	8G\	-te	.	.	.	.	.	.	.	.
!	!	!LO:LB:g=original	!	!	!	!	!	!	!	!	!	!	!
=4	=4	=4	=4	=4	=4	=4	=4	=4	=4	=4	=4	=4	=4
!LO:TX:a:t=P:mixed beam:problem	!	!	!	!	!	!	!	!	!	!	!	!	!
8F\L	7	8cc\L	16aa\LL	(>16A\LL	no-	.	.	.	.	.	.	2ryy	2ryy
.	.	.	16gg\	16B\JJ)	.	.	.	.	.	.	.	.	.
8D\	.	16dd\L	16ff\	(>16c\LL	-men	.	.	.	.	.	.	.	.
.	.	16cc\JJ	16ee\JJ	16F\JJ)	.	.	.	.	.	.	.	.	.
8G\	4	8cc\L	16dd\LL	8G\	do-	.	.	.	.	.	.	.	.
.	.	.	16ee\	.	.	.	.	.	.	.	.	.	.
8GG/J	3	8b\J	16ff\	8GG/	-mi-	.	.	.	.	.	.	.	.
.	.	.	16gg\JJ	.	.	.	.	.	.	.	.	.	.
!	!	!	!	!LO:LB:g=original	!	!	!	!	!	!	!	!	!
=5	=5	=5	=5	=5	=5	=5	=5	=5	=5	=5	=5	=5	=5
!	!	!	!	!	!	!LO:N:vis=00	!	!	!	!	!	!	!
4C/	.	8cc\	8ee\	8C/	-ni	0r	.	8rf	.	8rdd	.	2ryy	2ryy
.	.	8r	8rdd	8rA	.	.	.	8g\	Sit	8ee\	Sit	.	.
!	!	!	!	!	!	!	!	!	!	!LO:TX:a:i:t=a2:rj	!	!	!
8r	.	4r	4rdd	4rF	.	.	.	8f\	no-	8dd\	no-	.	.
!	!	!	!	!	!	!	!	!	!	!LO:LB:g=original	!	!	!
8C/	.	.	.	.	.	.	.	16e\LL	-men	8cc\	-men,	.	.
.	.	.	.	.	.	.	.	16f\JJ	.	.	.	.	.
=6	=6	=6	=6	=6	=6	=6	=6	=6	=6	=6	=6	=6	=6
!	!	!LO:TX:a:B:t=5	!LO:TX:a:B:t=5	!	!	!	!	!	!	!	!	!	!
!	!	!LO:N:vis=00	!LO:N:vis=00	!LO:N:vis=00	!	!	!	!	!	!	!	!	!
4G\	.	0r	0r	0r	.	.	.	8g\	do-	8dd\	do-	2ryy	2ryy
.	.	.	.	.	.	.	.	16b\	-mi-	16dd\	-mi-	.	.
.	.	.	.	.	.	.	.	16a\	-ni	16cc\	-ni,	.	.
8rA	.	.	.	.	.	.	.	8g\	be-	8b\	be-	.	.
8G\	.	.	.	.	.	.	.	8b\	-ne-	8dd\	-ne-	.	.
=7	=7	=7	=7	=7	=7	=7	=7	=7	=7	=7	=7	=7	=7
!LO:TX:a:t=P:mixed beam:problem	!	!	!	!	!	!	!	!	!	!	!	!	!
8c\L	.	.	.	.	.	.	.	16a\LL	-di-	16cc\LL	-di-	2ryy	2ryy
.	.	.	.	.	.	.	.	16b\	.	16dd\	.	.	.
8G\	.	.	.	.	.	.	.	16g\	.	16b\	.	.	.
.	.	.	.	.	.	.	.	16a\JJ	.	16cc\JJ	.	.	.
8d\	.	.	.	.	.	.	.	8g\L	.	8b\L	.	.	.
8D/J	4	.	.	.	.	.	.	8f#X\J	.	16a\L	.	.	.
.	#	.	.	.	.	.	.	.	.	16g\JJ	.	.	.
=8	=8	=8	=8	=8	=8	=8	=8	=8	=8	=8	=8	=8	=8
4G\	.	.	.	.	.	.	.	8g,<\	-ctum,	8g,</	-ctum,	2ryy	2ryy
.	.	.	.	.	.	.	.	8b\	ex	8dd\	ex	.	.
8rA	.	.	.	.	.	.	.	8b\	hoc	8dd\	hoc	.	.
8G\	.	.	.	.	.	.	.	16a\	n(un)c	16cc\	nunc	.	.
.	.	.	.	.	.	.	.	16g\	et	16b\	et	.	.
=9	=9	=9	=9	=9	=9	=9	=9	=9	=9	=9	=9	=9	=9
!LO:TX:a:t=P:mixed beam:problem	!	!	!	!	!	!	!	!	!	!	!	!	!
!	!	!	!	!	!	!LO:N:vis=00	!	!	!	!	!	!	!
8c\L	.	.	.	.	.	0r	.	8g\L	us-	8ee\L	us-	2ryy	2ryy
8GG/J	.	.	.	.	.	.	.	8b\J	.	8dd\J	.	.	.
!	!	!	!	!	!	!	!	!LO:LB:g=original	!	!	!	!	!
!	!	!	!	!	!	!	!	!	!	!LO:TX:a:t=P: nuty 8cc 8b powinny być bez belki z racji na podłożenie tekstu:problem	!	!	!
8AA/L	.	.	.	.	.	.	.	8a\	-que	8cc`>\L	-que	.	.
16BB/L	.	.	.	.	.	.	.	8g\	in	8b`>\J	in	.	.
16C/JJ	.	.	.	.	.	.	.	.	.	.	.	.	.
!LO:LB:g=original	!	!	!	!	!	!	!	!	!	!	!	!	!
=10	=10	=10	=10	=10	=10	=10	=10	=10	=10	=10	=10	=10	=10
!LO:TX:a:t=P:słabo czytelne następne dwa takty w źródle:problem	!	!	!	!	!	!	!	!	!	!	!	!	!
!LO:TX:a:t=P:mixed beam:problem	!	!	!	!	!	!	!	!	!	!	!	!	!
8D\L	6 x	2r	2r	2r	.	.	.	4.g\	ſe-	4.b\	Se-	2ryy	2ryy
8C\	5 2	.	.	.	.	.	.	.	.	.	.	.	.
8D\	.	.	.	.	.	.	.	.	.	.	.	.	.
8DD/J	.	.	.	.	.	.	.	8f#X\	-cu-	(>16a\LL	-cu-	.	.
.	.	.	.	.	.	.	.	.	.	16g\JJ)	.	.	.
!	!	!	!	!	!	!	!	!	!	!LO:LB:g=original	!	!	!
=11	=11	=11	=11	=11	=11	=11	=11	=11	=11	=11	=11	=11	=11
8GG/L	.	8r	8rdd	8r	.	.	.	4g\	-lum	8g/	-lum,	2ryy	2ryy
!	!	!	!	!	!	!	!	!	!	!LO:TX:a:t=P:w źródle 2 kreski || po sylabie '-lum':problem	!	!	!
!	!	!	!	!LO:TX:b:Bi:t=solo	!	!	!	!	!	!	!	!	!
8GG/	.	8dd\L	8bb\L	8G\	lau-	.	.	.	.	8rb	.	.	.
8AA/	6\	8cc\	8aa\	8F#X\	-da-	.	.	4r	.	4rb	.	.	.
8BB/J	6	8b\J	8gg\J	8G\	-te	.	.	.	.	.	.	.	.
=12	=12	=12	=12	=12	=12	=12	=12	=12	=12	=12	=12	=12	=12
!	!	!	!	!	!	!	!	!	!	!LO:TX:a:B:t=1	!	!	!
!	!	!	!	!	!	!	!	!	!	!LO:TX:b:Bi:t= vi\n*	!	!	!
8C/L	.	8ee\L	8gg\L	8E\	pu-	.	.	2r	.	2r	.	2ryy	2ryy
8BB/	6	8b\	8gg\J	16E\	-e-	.	.	.	.	.	.	.	.
.	.	.	.	16D\	-ri	.	.	.	.	.	.	.	.
8C/	6	8ee\	8aa\L	8E\	do-	.	.	.	.	.	.	.	.
8D/J	#	8dd\J	16gg\L	8F#X\	-mi-	.	.	.	.	.	.	.	.
.	.	.	16aa\JJ	.	.	.	.	.	.	.	.	.	.
!	!	!	!LO:LB:g=original	!	!	!	!	!	!	!	!	!	!
=13	=13	=13	=13	=13	=13	=13	=13	=13	=13	=13	=13	=13	=13
!	!	!	!	!	!	!	!	!	!	!LO:TX:a:t=P:w źródle brak rozpisanego fragmentu utworu; odnośnik *vi oraz 7ro oznaczający prawdopodobnie 7 dodatkowych taktów przerwy:problem	!	!	!
!	!	!	!	!	!	!LO:N:vis=00	!	!	!	!	!	!	!
4GG/	.	8dd\	8bb\	8G\	-num	0r	.	8r	.	2ryy	.	2ryy	2ryy
.	.	8r	8rdd	8r	.	.	.	8b\	a	.	.	.	.
8r	.	4r	4rdd	4r	.	.	.	16b\LL	so-	.	.	.	.
.	.	.	.	.	.	.	.	16cc\JJ	.	.	.	.	.
8D/	#	.	.	.	.	.	.	16b\LL	-lis	.	.	.	.
.	.	.	.	.	.	.	.	16a\JJ	.	.	.	.	.
=14	=14	=14	=14	=14	=14	=14	=14	=14	=14	=14	=14	=14	=14
!	!	!LO:TX:a:B:t=4	!	!	!	!	!	!	!	!	!	!	!
!	!	!LO:N:vis=00	!LO:N:vis=00	!LO:N:vis=00	!	!	!	!	!	!	!	!	!
8G\L	.	0r	0r	0r	.	.	.	8g\	or-	2ryy	.	2ryy	2ryy
8F#X\	6	.	.	.	.	.	.	8d\	-tu	.	.	.	.
8G\	6\	.	.	.	.	.	.	8d\	us-	.	.	.	.
8E\J	.	.	.	.	.	.	.	8g\	-que	.	.	.	.
=15	=15	=15	=15	=15	=15	=15	=15	=15	=15	=15	=15	=15	=15
!LO:TX:a:t=P:mixed beam:problem	!	!	!	!	!	!	!	!	!	!	!	!	!
8F#X\L	6	.	.	.	.	.	.	8a\	ad	2ryy	.	2ryy	2ryy
8G\	6	.	.	.	.	.	.	16g\LL	oc-	.	.	.	.
.	.	.	.	.	.	.	.	16f#X\JJ	.	.	.	.	.
8A\	5	.	.	.	.	.	.	16e\LL	-ca-	.	.	.	.
.	#	.	.	.	.	.	.	16f#\	.	.	.	.	.
8AA/J	.	.	.	.	.	.	.	16d\	.	.	.	.	.
.	.	.	.	.	.	.	.	16e\JJ	.	.	.	.	.
=16	=16	=16	=16	=16	=16	=16	=16	=16	=16	=16	=16	=16	=16
4D/	#	.	.	.	.	.	.	8f#X\	-sum	2ryy	.	2ryy	2ryy
.	.	.	.	.	.	.	.	8a\	lau-	.	.	.	.
!	!	!	!	!	!	!	!	!LO:LB:g=original	!	!	!	!	!
8r	.	.	.	.	.	.	.	8f#X\	-da-	.	.	.	.
8D/	#	.	.	.	.	.	.	16f#\	-bi-	.	.	.	.
.	.	.	.	.	.	.	.	16g\	-le	.	.	.	.
=17	=17	=17	=17	=17	=17	=17	=17	=17	=17	=17	=17	=17	=17
!	!	!	!	!	!	!LO:N:vis=0	!	!	!	!	!	!	!
8D/L	#	.	.	.	.	1r	.	16a\LL	no-	2ryy	.	2ryy	2ryy
.	.	.	.	.	.	.	.	16g\JJ	.	.	.	.	.
8D/	.	.	.	.	.	.	.	16a\LL	-men	.	.	.	.
.	.	.	.	.	.	.	.	16f#X\JJ	.	.	.	.	.
8BB/	6	.	.	.	.	.	.	8g\	do-	.	.	.	.
8D/J	.	.	.	.	.	.	.	8d\	-mi-	.	.	.	.
=18	=18	=18	=18	=18	=18	=18	=18	=18	=18	=18	=18	=18	=18
!LO:TX:a:t=P:mixed beam:problem	!	!	!	!	!	!	!	!	!	!	!	!	!
8GG/L	.	8r	8rdd	8rA	.	.	.	8B/	-ni	2ryy	.	2ryy	2ryy
!	!	!	!	!LO:TX:a:Bi:t=solo	!	!	!	!	!	!	!	!	!
8G\	.	8b\L	8dd\L	8G\	Lau-	.	.	8r	.	.	.	.	.
8F#X\	6	8a\	8dd\	8A\	-da-	.	.	4r	.	.	.	.	.
8G\J	.	8dd\J	8gg\J	8B\	-te	.	.	.	.	.	.	.	.
!LO:LB:g=original	!	!	!	!	!	!	!	!	!	!	!	!	!
=19	=19	=19	=19	=19	=19	=19	=19	=19	=19	=19	=19	=19	=19
!LO:TX:a:t=P:mixed beam:problem	!	!	!	!	!	!	!	!	!	!	!	!	!
!LO:TX:a:t=P:w źródle cyfrowanie bardzo słabo widoczne:problem	!	!	!	!	!	!	!	!	!	!	!	!	!
8E\L	6 x	8cc\L	8gg\L	16c\LL	no	2r	.	2r	.	2ryy	.	2ryy	2ryy
.	.	.	.	16B\JJ	.	.	.	.	.	.	.	.	.
!	!	!	!	!LO:LB:g=original	!	!	!	!	!	!	!	!	!
8C\	6 x	8ee\J	16aa\L	16c\LL	men	.	.	.	.	.	.	.	.
.	.	.	16gg\JJ	16A\JJ	.	.	.	.	.	.	.	.	.
8D\	5 4	16dd\LL	8gg\L	8d\	do-	.	.	.	.	.	.	.	.
.	.	16cc\	.	.	.	.	.	.	.	.	.	.	.
8DD/J	x #	16b\	8ff#X\J	8D/	-mi-	.	.	.	.	.	.	.	.
.	.	16a\JJ	.	.	.	.	.	.	.	.	.	.	.
!	!	!	!	!	!	!LO:LB:g=original	!	!	!	!	!	!	!
=20	=20	=20	=20	=20	=20	=20	=20	=20	=20	=20	=20	=20	=20
!	!	!	!	!	!	!	!	!	!	!LO:TX:b:Bi:t=7ro	!	!	!
8GG/L	.	8b\	8gg\	8G\	-ni	8r	.	8r	.	8rdd	.	2ryy	2ryy
*clefC4	*	*	*	*	*	*	*	*	*	*	*	*	*
!	!	!	!	!	!	!	!	!	!	!LO:TX:a:B:t=X:problem: brak znaczenia muzycznego:problem	!	!	!
8G/	.	8r	8rdd	8r	.	8G/	ex-	8g\	ex-	8dd\	ex-	.	.
8G/	.	4r	4rdd	4r	.	8G/	-cel-	8g\	-cel-	8dd\	-cel-	.	.
8G/J	.	.	.	.	.	8G/	-sus	8g\	-sus	8ee\	-sus	.	.
=21	=21	=21	=21	=21	=21	=21	=21	=21	=21	=21	=21	=21	=21
!	!	!LO:TX:a:B:t=5	!LO:TX:a:B:t=5	!	!	!	!	!	!	!	!	!	!
!	!	!LO:N:vis=00	!LO:N:vis=00	!LO:N:vis=00	!	!	!	!	!	!	!	!	!
8A\L	5	0r	0r	0r	.	8A/	ſu-	8e\	ſu-	(>16ff\LL	Su-	2ryy	2ryy
.	-n	.	.	.	.	.	.	.	.	16ee\JJ)	.	.	.
8A\	6	.	.	.	.	8A/	-per	8f\	-per	(>16dd\LL	-per	.	.
.	5	.	.	.	.	.	.	.	.	16cc\JJ)	.	.	.
8B\	.	.	.	.	.	8B\	om-	8d\	om-	8b\	om-	.	.
8B\J	6	.	.	.	.	8B\	-nes	8g\	-nes	8dd\	-nes	.	.
=22	=22	=22	=22	=22	=22	=22	=22	=22	=22	=22	=22	=22	=22
!LO:TX:a:t=P:mixed beam:problem	!	!	!	!	!	!	!	!	!	!	!	!	!
8c\L	6 5	.	.	.	.	8c\	gen-	8g\	gen-	8ee\	gen-	2ryy	2ryy
8F/J	5 4	.	.	.	.	8F/	-tes	16f\LL	-tes	(>16dd\LL	-tes	.	.
.	x 3	.	.	.	.	.	.	16e\JJ	.	16cc\JJ)	.	.	.
4G/	.	.	.	.	.	8.B\	do-	8.d\	do-	8.cc\	do-	.	.
.	.	.	.	.	.	16B\	-mi-	16d\	-mi-	16b\	-mi-	.	.
!	!	!	!	!	!	!	!	!LO:TX:a:t=P:w źródle brak kreski taktowej; możliwe zagięcie podczas skanowania:problem	!	!	!	!	!
!	!	!	!	!	!	!	!	!LO:LB:g=original	!	!	!	!	!
=23	=23	=23	=23	=23	=23	=23	=23	=23-	=23-	=23	=23	=23	=23
!LO:TX:a:t=P:mixed beam:problem	!	!	!	!	!	!	!	!	!	!	!	!	!
8C/L	.	.	.	.	.	8E/	-nus,	8e,<\	-nus	8cc\	-nus,	2ryy	2ryy
8c\	6\	.	.	.	.	8c\	et	8g\	et	8ee\	et	.	.
8B\	.	.	.	.	.	8B\	Su-	8g#X\	su-	8dd\	su-	.	.
8A\J	-n	.	.	.	.	8A\	-per	8a\	-per	8cc\	-per	.	.
!	!	!	!	!	!	!	!	!	!	!LO:PB:g=original	!	!	!
=24	=24	=24	=24	=24	=24	=24	=24	=24	=24	=24	=24	=24	=24
!LO:SIC:s=8e:v	!	!	!	!	!	!	!	!	!	!	!	!	!
8d\L	#	.	.	.	.	8e\	coe-	8g#X\	coe-	8b\	coe-	2ryy	2ryy
8e\	6	.	.	.	.	8e\	-los	8g#\	-los	8b\	-los	.	.
8c\	6	.	.	.	.	8c\	glo-	8a\	glo-	8ee\	glo-	.	.
!	!	!	!	!	!	!LO:LB:g=original	!	!	!	!	!	!	!
8A\J	.	.	.	.	.	16A/	-ri-	16a\	-ri-	16ee\	-ri-	.	.
.	.	.	.	.	.	16A/	-a	16a\	-a	16ee\	-a	.	.
=25	=25	=25	=25	=25	=25	=25	=25	=25	=25	=25	=25	=25	=25
!LO:TX:a:t=P:mixed beam:problem	!	!	!	!	!	!	!	!	!	!	!	!	!
8d\L	6 5	2r	2r	2r	.	8d\	glo-	8a\	glo-	8b\	glo-	2ryy	2ryy
8B\	.	.	.	.	.	16c\	-ri-	16a\	-ri-	16cc\	-ri-	.	.
.	.	.	.	.	.	16B\	-a	16b\	-a	16dd\	-a	.	.
!	!	!	!	!	!	!LO:TX:a:t=P:mixed beam:problem	!	!	!	!	!	!	!
8e\	4	.	.	.	.	8e\L	e-	8a\L	e-	(>8cc\L	e-	.	.
.	#	.	.	.	.	.	.	.	.	.	.	.	.
8E/J	.	.	.	.	.	8E/J	.	8g#X\J	.	16b\L	.	.	.
.	.	.	.	.	.	.	.	.	.	16a\JJ)	.	.	.
=26	=26	=26	=26	=26	=26	=26	=26	=26	=26	=26	=26	=26	=26
!	!	!	!	!	!	!	!	!	!	!LO:SIC:s=4a:v	!	!	!
4A/	.	8rdd	8rdd	8rF	.	4A/	-jus	4a\	-jus	4g\	-jus	2ryy	2ryy
!	!	!	!	!LO:TX:b:i:t=solo	!	!	!	!	!	!	!	!	!
.	.	8cc\	8ee\	16A\LL	lau-	.	.	.	.	.	.	.	.
.	.	.	.	16B\JJ	.	.	.	.	.	.	.	.	.
*clefF4	*	*	*	*	*	*	*	*	*	*	*	*	*
8r	.	8a/L	8ee\L	8c\L	-da-	4r	.	4rd	.	4r	.	.	.
8AA/	.	8e/J	16dd\L	16B\L	.	.	.	.	.	.	.	.	.
.	.	.	16cc\JJ	16A\JJ	.	.	.	.	.	.	.	.	.
!	!	!LO:LB:g=original	!	!	!	!	!	!	!	!	!	!	!
=27	=27	=27	=27	=27	=27	=27	=27	=27	=27	=27	=27	=27	=27
!	!	!LO:TX:a:t=P:mixed beam:problem	!	!	!	!	!	!	!	!	!	!	!
!	!	!	!	!	!	!	!	!	!	!LO:TX:a:B:t=2	!	!	!
!	!	!	!	!	!	!LO:N:vis=00	!	!LO:N:vis=0	!	!LO:N:vis=0	!	!	!
8E\L	#	8e/L	8b\L	8G#X\	-te	0r	.	1r	.	1r	.	2ryy	2ryy
8G#X\J	6	8b\	8ee\	8E\	lau-	.	.	.	.	.	.	.	.
!LO:LB:g=original	!	!	!	!	!	!	!	!	!	!	!	!	!
8F#X\L	.	8dd\	8aa\	8F#X\	-da-	.	.	.	.	.	.	.	.
8E\J	.	8ee\J	8ccc\J	8A\	-te	.	.	.	.	.	.	.	.
=28	=28	=28	=28	=28	=28	=28	=28	=28	=28	=28	=28	=28	=28
!LO:TX:a:t=P:mixed beam:problem	!	!	!	!	!	!	!	!	!	!	!	!	!
8A\L	n	8ee\L	8ccc\L	8A\	pu-	.	.	.	.	.	.	2ryy	2ryy
8D\	.	16dd\L	16bb\L	16F\	-e-	.	.	.	.	.	.	.	.
.	.	16cc\JJ	16aa\JJ	16D/	-ri	.	.	.	.	.	.	.	.
8E\	5 4	4b\	8aa\L	8.E\	do-	.	.	.	.	.	.	.	.
.	x #	.	.	.	.	.	.	.	.	.	.	.	.
!	!	!	!LO:TX:a:t=P:w źródle nuta poprawiana przez skryptora:problem	!	!	!	!	!	!	!	!	!	!
8EE/J	.	.	8gg#X\J	.	.	.	.	.	.	.	.	.	.
.	.	.	.	16E\	-mi-	.	.	.	.	.	.	.	.
!	!	!	!	!LO:LB:g=original	!	!	!	!	!	!	!	!	!
=29	=29	=29	=29	=29	=29	=29	=29	=29	=29	=29	=29	=29	=29
!	!	!	!LO:TX:a:t=P:mixed beam:problem	!	!	!	!	!	!	!	!	!	!
8AA/L	.	8cc\L	8aa\L	4AA/	-num,	.	.	4a\	quis	4cc\	quis	2ryy	2ryy
8BB/	.	8a\J	8a/J	.	.	.	.	.	.	.	.	.	.
8C/	.	4A/	4A/	4r	.	.	.	8rf	.	8rdd	.	.	.
*	*	*	*	*	*	*	*	*	*ij	*	*ij	*	*
8AA/J	.	.	.	.	.	.	.	8a\	quis	8cc\	quis	.	.
*	*	*	*	*	*	*	*	*	*Xij	*	*Xij	*	*
=30	=30	=30	=30	=30	=30	=30	=30	=30	=30	=30	=30	=30	=30
!	!	!LO:TX:a:B:t=8	!LO:TX:a:B:t=8	!	!	!	!	!	!	!	!	!	!
!	!	!LO:N:vis=00	!LO:N:vis=00	!LO:N:vis=00	!	!	!	!	!	!	!	!	!
8E\L	#	0r	0r	0r	.	.	.	8g#X\	Si-	(>16b\LL	si-	2ryy	2ryy
.	.	.	.	.	.	.	.	.	.	16cc\JJ)	.	.	.
8F#X\	.	.	.	.	.	.	.	8f#X\	-cut	(>16b\LL	-cut	.	.
.	.	.	.	.	.	.	.	.	.	16a\JJ)	.	.	.
!	!	!	!	!	!	!	!	!LO:LB:g=original	!	!	!	!	!
8G#X\	.	.	.	.	.	.	.	8e\	do-	8g#X/	do-	.	.
8E\J	.	.	.	.	.	.	.	16f#X\	-mi-	16a\	-mi-	.	.
.	.	.	.	.	.	.	.	16g#\	-nus	16b\	-nus	.	.
=31	=31	=31	=31	=31	=31	=31	=31	=31	=31	=31	=31	=31	=31
!LO:TX:a:t=P:mixed beam:problem	!	!	!	!	!	!	!	!	!	!	!	!	!
!	!	!	!	!	!	!LO:N:vis=00	!	!	!	!	!	!	!
8A\L	n x	.	.	.	.	0r	.	8a\	de-	8cc\	de-	2ryy	2ryy
!	!	!	!	!	!	!	!	!	!	!LO:LB:g=original	!	!	!
8D\	6 5	.	.	.	.	.	.	8a\	-us	8b\	-us	.	.
8E\	6 x	.	.	.	.	.	.	8.a\L	no-	(>8cc\L	no-	.	.
.	5 4	.	.	.	.	.	.	.	.	.	.	.	.
!	!	!	!	!	!	!	!	!	!	!LO:SIC:s=16a:v	!	!	!
8EE/J	#	.	.	.	.	.	.	.	.	16b\L	.	.	.
!	!	!	!	!	!	!	!	!	!	!LO:SIC:s=16g#:v	!	!	!
.	.	.	.	.	.	.	.	16g#X\Jk	.	16a\JJ)	.	.	.
=32	=32	=32	=32	=32	=32	=32	=32	=32	=32	=32	=32	=32	=32
!LO:TX:a:t=P:mixed beam:problem	!	!	!	!	!	!	!	!	!	!	!	!	!
8AA/L	n	.	.	.	.	.	.	8a,<\	-ſter	8a\	-ſter,	2ryy	2ryy
8E\	.	.	.	.	.	.	.	16a\	qui	16a\	qui	.	.
.	.	.	.	.	.	.	.	16g#X\	in	16b\	in	.	.
8A\	n	.	.	.	.	.	.	8a\	al-	8cc\	al-	.	.
8F\J	6	.	.	.	.	.	.	8a\	-tis	8dd\	-tis	.	.
=33	=33	=33	=33	=33	=33	=33	=33	=33	=33	=33	=33	=33	=33
4E\	5 #	.	.	.	.	.	.	8g#X\	ha-	8ee\	ha-	2ryy	2ryy
.	.	.	.	.	.	.	.	16g#\	-bi-	16ee\	-bi-	.	.
.	.	.	.	.	.	.	.	16g#\	-tat,	16ee\	-tat	.	.
8r	.	.	.	.	.	.	.	8e\	et	8e/	et	.	.
8E\	6 n	.	.	.	.	.	.	8c/	hu-	8e/	hu-	.	.
.	x 3	.	.	.	.	.	.	.	.	.	.	.	.
=34	=34	=34	=34	=34	=34	=34	=34	=34	=34	=34	=34	=34	=34
!LO:TX:a:t=P:mixed beam:problem	!	!	!	!	!	!	!	!	!	!	!	!	!
!	!	!LO:N:vis=00	!LO:N:vis=00	!LO:N:vis=00	!	!	!	!	!	!	!	!	!
8F\L	6 5	0r	0r	0r	.	.	.	4c/	-mi-	4.d/	-mi-	2ryy	2ryy
8D\	.	.	.	.	.	.	.	.	.	.	.	.	.
8G\	5 4	.	.	.	.	.	.	4B/	-li-	.	.	.	.
8GG/J	3 x	.	.	.	.	.	.	.	.	8d/	-li-	.	.
=35	=35	=35	=35	=35	=35	=35	=35	=35	=35	=35	=35	=35	=35
!	!	!	!	!	!	!LO:N:vis=00	!	!	!	!	!	!	!
4C/	.	.	.	.	.	0r	.	8c/	-a	8e/	-a,	2ryy	2ryy
.	.	.	.	.	.	.	.	16e\	re-	16cc\	res-	.	.
!	!	!	!	!	!	!	!	!LO:LB:g=original	!	!	!	!	!
.	.	.	.	.	.	.	.	16d\	-spi-	16b\	-pi-	.	.
8r	.	.	.	.	.	.	.	(>16e\LL	-cit	(>16cc\LL	-cit	.	.
.	.	.	.	.	.	.	.	16f\JJ)	.	16dd\JJ)	.	.	.
!	!	!	!	!	!	!	!	!	!	!LO:TX:a:t=P:w źródle znak custos użyty jako łamanie pięciolinii:problem	!	!	!
!	!	!	!	!	!	!	!	!	!	!LO:SIC:custos:v	!	!	!
!	!	!	!	!	!	!	!	!	!	!LO:LB:g=original	!	!	!
!LO:TX:a:t=P:w źródle cyfrowanie nad pauzą:problem	!	!	!	!	!	!	!	!	!	!	!	!	!
8C/	-7	.	.	.	.	.	.	(>16e\LL	in	(>16cc\LL	in	.	.
.	.	.	.	.	.	.	.	16d\JJ)	.	16b-X\JJ)	.	.	.
=36	=36	=36	=36	=36	=36	=36	=36	=36	=36	=36	=36	=36	=36
8F\L	6	.	.	.	.	.	.	8c/	cel-	8a\	ca-	2ryy	2ryy
8G\	6	.	.	.	.	.	.	8g\	-lo	8b-X\	-lo	.	.
8A\	6	.	.	.	.	.	.	8f\	et	8cc\	et	.	.
8B-X\J	5	.	.	.	.	.	.	16g\LL	in	(>16b-\LL	in	.	.
.	.	.	.	.	.	.	.	16f\JJ	.	16a\JJ)	.	.	.
!LO:LB:g=original	!	!	!	!	!	!	!	!	!	!	!	!	!
=37	=37	=37	=37	=37	=37	=37	=37	=37	=37	=37	=37	=37	=37
!LO:TX:a:t=P:mixed beam:problem	!	!	!	!	!	!	!	!	!	!	!	!	!
8c\L	4	.	.	.	.	.	.	(>4.f\	ter-	2g/	ter-	2ryy	2ryy
8B-X\	3	.	.	.	.	.	.	.	.	.	.	.	.
8c\	.	.	.	.	.	.	.	.	.	.	.	.	.
8C/J	.	.	.	.	.	.	.	8e\)	.	.	.	.	.
!	!	!	!LO:LB:g=original	!	!	!	!	!	!	!	!	!	!
=38	=38	=38	=38	=38	=38	=38	=38	=38	=38	=38	=38	=38	=38
!LO:TX:a:t=P:mixed beam:problem	!	!	!	!	!	!	!	!	!	!	!	!	!
8FF/L	.	8rdd	8rdd	8rF	.	.	.	8f\	-ra	8f/	-ra	2ryy	2ryy
8F\	.	8cc\L	8aa\L	8F\	lau-	.	.	8rd	.	8rb	.	.	.
8E\	6	8cc\	8gg\	8G\	-da-	.	.	4rd	.	4rb	.	.	.
8F\J	.	8cc\J	8ff\J	8A\	-te	.	.	.	.	.	.	.	.
=39	=39	=39	=39	=39	=39	=39	=39	=39	=39	=39	=39	=39	=39
!	!	!	!	!	!	!	!	!LO:TX:a:B:t=1	!	!LO:TX:a:B:t=1	!	!	!
8D/L	.	8dd\L	16ff\LL	16B-X\LL	no-	2r	.	2r	.	2r	.	2ryy	2ryy
.	.	.	16aa\	16c\JJ	.	.	.	.	.	.	.	.	.
8BB-X/	6	8gg\	16gg\	16d\LL	-men	.	.	.	.	.	.	.	.
.	.	.	16bb-X\JJ	16B-X\JJ	.	.	.	.	.	.	.	.	.
8C/	5 4	8ff\	8aa\L	8c\	do-	.	.	.	.	.	.	.	.
.	x 3	.	.	.	.	.	.	.	.	.	.	.	.
8CC/J	.	8cc\J	16gg\L	8C/	-mi-	.	.	.	.	.	.	.	.
.	.	.	16ff\JJ	.	.	.	.	.	.	.	.	.	.
=40	=40	=40	=40	=40	=40	=40	=40	=40	=40	=40	=40	=40	=40
!	!	!	!	!	!	!LO:TX:a:Bi:t=Solo	!	!	!	!	!	!	!
4FF/	.	8a/	8ff\	8F\	-ni	8.F/	ſus-	8.a\	ſus-	8.cc\	Sus-	2ryy	2ryy
.	.	8rdd	8rdd	8r	.	.	.	.	.	.	.	.	.
.	.	.	.	.	.	16G/	-ci-	16g\	-ci-	16b-X\	-ci-	.	.
*clefC4	*	*	*	*	*	*	*	*	*	*	*	*	*
8r	.	4r	4rdd	4r	.	8A/	-tans	8f\	-tans	8a\	-tans	.	.
8F/	.	.	.	.	.	8B-X\	a	8f\	a	8dd\	a	.	.
=41	=41	=41	=41	=41	=41	=41	=41	=41	=41	=41	=41	=41	=41
!	!	!LO:TX:a:B:t=3	!LO:TX:a:B:t=3	!	!	!	!	!	!	!	!	!	!
!	!	!LO:N:vis=0	!LO:N:vis=0	!LO:N:vis=0	!	!	!	!	!	!	!	!	!
8c\L	.	1r	1r	1r	.	8c\	ter-	8e\	ter-	8cc\	ter-	2ryy	2ryy
8A\	6	.	.	.	.	8A\	-ra	8f\	-ra	8cc\	-ra	.	.
8B-X\	6	.	.	.	.	8B-X\	i-	8g\	i-	8b-X\	i-	.	.
8c\J	.	.	.	.	.	8c\	-no-	8e\	-no-	(>16a\LL	-no-	.	.
.	.	.	.	.	.	.	.	.	.	16g\JJ)	.	.	.
!	!	!	!	!	!	!	!	!LO:LB:g=original	!	!	!	!	!
=42	=42	=42	=42	=42	=42	=42	=42	=42	=42	=42	=42	=42	=42
!LO:TX:a:t=P:mixed beam:problem	!	!	!	!	!	!	!	!	!	!	!	!	!
8F/L	.	.	.	.	.	8F/	-pem	8f\	-pem,	8a\	-pem,	2ryy	2ryy
!	!	!	!	!	!	!	!	!	!	!LO:LB:g=original	!	!	!
16f\L	.	.	.	.	.	16f\	et	16a\	et	16cc\	et	.	.
!	!	!	!	!	!	!LO:LB:g=original	!	!	!	!	!	!	!
16e\JJ	6	.	.	.	.	16e\	de	16g\	de	16cc\	de	.	.
8f\L	.	.	.	.	.	8f\	ſter-	8a\	ſter-	8cc\	ſter-	.	.
16e\L	6	.	.	.	.	16e\	-co-	16g\	-co-	16cc\	-co-	.	.
16d\JJ	6	.	.	.	.	16d\	-re	16f\	-re	16bn\	-re	.	.
=43	=43	=43	=43	=43	=43	=43	=43	=43	=43	=43	=43	=43	=43
!LO:TX:a:t=P:mixed beam:problem	!	!	!	!	!	!	!	!	!	!	!	!	!
8e\L	6	2r	2r	2r	.	8e\	e-	8g\	e-	8cc\	e-	2ryy	2ryy
8c\	.	.	.	.	.	16d\	-ri-	16f\	-ri-	16cc\	-ri-	.	.
.	.	.	.	.	.	16c\	-gens	16e\	-gens	16cc\	-gens	.	.
8g\	.	.	.	.	.	8g\	pau-	8.d\	pau-	8cc\	pau-	.	.
8G/J	4	.	.	.	.	8G/	-pe-	.	.	8bn\	-pe-	.	.
.	3	.	.	.	.	.	.	16d\	-pe-	.	.	.	.
=44	=44	=44	=44	=44	=44	=44	=44	=44	=44	=44	=44	=44	=44
8c\L	.	8rdd	8rdd	8rA	.	4c\	-rem	4e\	-rem	4cc\	-rem	2ryy	2ryy
*clefF4	*	*	*	*	*	*	*	*	*	*	*	*	*
!	!	!	!	!LO:TX:b:Bi:t=Solo	!	!	!	!	!	!	!	!	!
8C\	.	8ee\L	8gg\L	8c\	lau-	.	.	.	.	.	.	.	.
8D\	6	8dd\	8gg\	8B\	-da-	4r	.	4rd	.	4rb	.	.	.
8E\J	6	8cc\J	8gg\J	8c\	-te	.	.	.	.	.	.	.	.
=45	=45	=45	=45	=45	=45	=45	=45	=45	=45	=45	=45	=45	=45
!	!	!	!	!	!	!LO:N:vis=00	!	!	!	!	!	!	!
8F\L	6	16cc\LL	16ff\LL	8A\	pu-	0r	.	2r	.	2r	.	2ryy	2ryy
.	.	16cc\	16ee\	.	.	.	.	.	.	.	.	.	.
8D\	7	16dd\	16ff\	16A\	-e-	.	.	.	.	.	.	.	.
.	.	16ee\JJ	16gg\JJ	16G\	-ri	.	.	.	.	.	.	.	.
!	!	!	!	!LO:LB:g=original	!	!	!	!	!	!	!	!	!
8C\	7	16cc\LL	16ff\LL	8A\	do-	.	.	.	.	.	.	.	.
.	.	16dd\	16ff\	.	.	.	.	.	.	.	.	.	.
8G\J	.	16ee\	16gg\	8B\	-mi-	.	.	.	.	.	.	.	.
.	.	16dd\JJ	16ff\JJ	.	.	.	.	.	.	.	.	.	.
!LO:LB:g=original	!	!	!	!	!	!	!	!	!	!	!	!	!
=46	=46	=46	=46	=46	=46	=46	=46	=46	=46	=46	=46	=46	=46
4C/	.	8cc\	8ee\	8c\	-num	.	.	8rd	.	8rdd	.	2ryy	2ryy
.	.	8r	8rdd	8rF	.	.	.	8e\	ut	8cc\	ut	.	.
8r	.	4r	4rdd	4rF	.	.	.	8e\	co-	8cc\	co-	.	.
8C/	.	.	.	.	.	.	.	16d\	-lo-	16b\	-lo-	.	.
.	.	.	.	.	.	.	.	16e\	-cet	16cc\	-cet	.	.
!	!	!LO:LB:g=original	!	!	!	!	!	!	!	!	!	!	!
=47	=47	=47	=47	=47	=47	=47	=47	=47	=47	=47	=47	=47	=47
!	!	!LO:N:vis=00	!LO:N:vis=00	!LO:N:vis=00	!	!	!	!	!	!	!	!	!
8F\L	.	0r	0r	0r	.	.	.	8c/	e-	8a\	e-	2ryy	2ryy
16E\L	.	.	.	.	.	.	.	8c/	-um	8a\	-um	.	.
16F\JJ	.	.	.	.	.	.	.	.	.	.	.	.	.
!	!	!	!	!	!	!	!	!LO:LB:g=original	!	!	!	!	!
8D\L	.	.	.	.	.	.	.	8f\	cum	8dd\	cum	.	.
!	!	!	!	!	!	!	!	!	!	!LO:TX:a:t=P:w źródle sylaba '-prin-' z racji na brak miejsca posiada literę 'n' nad 'pri':problem	!	!	!
8D\J	.	.	.	.	.	.	.	16e\LL	prin-	16cc\LL	prin-	.	.
.	.	.	.	.	.	.	.	16f\JJ	.	16dd\JJ	.	.	.
!	!	!	!	!	!	!	!	!	!	!LO:TX:a:t=P:w źródle brak kreski taktowej; możliwe zagięcie podczas skanowania:problem	!	!	!
!	!	!	!	!	!	!	!	!	!	!LO:LB:g=original	!	!	!
=48	=48	=48	=48	=48	=48	=48	=48	=48	=48	=48-	=48-	=48	=48
8G\L	.	.	.	.	.	.	.	8d\	-ci-	8b\	-ci-	2ryy	2ryy
16F\L	.	.	.	.	.	.	.	16d\	-pi-	16b\	-pi-	.	.
16G\JJ	.	.	.	.	.	.	.	16d\	-bus,	16b\	-bus	.	.
8E\L	.	.	.	.	.	.	.	8g\	po-	8ee\	po-	.	.
8E\J	.	.	.	.	.	.	.	16f\	-pu-	16dd\	-pu-	.	.
.	.	.	.	.	.	.	.	16g\	-li	16ee\	-li	.	.
=49	=49	=49	=49	=49	=49	=49	=49	=49	=49	=49	=49	=49	=49
!LO:TX:a:t=P:mixed beam:problem	!	!	!	!	!	!	!	!	!	!	!	!	!
8A\L	6 x	.	.	.	.	4r	.	8e\	po-	8cc\	po-	2ryy	2ryy
.	5 x	.	.	.	.	.	.	.	.	.	.	.	.
8F\	.	.	.	.	.	.	.	16f\	-pu-	16dd\	-pu-	.	.
.	.	.	.	.	.	.	.	16e\	-li	16cc\	-li	.	.
8G\	5 4	.	.	.	.	8r	.	4d\	Su-	4cc\	Su-	.	.
8GG/J	3	.	.	.	.	8G/	qui	.	.	.	.	.	.
=50	=50	=50	=50	=50	=50	=50	=50	=50	=50	=50	=50	=50	=50
!LO:TX:a:t=P:mixed beam:problem	!	!	!	!	!	!	!	!	!	!	!	!	!
!	!	!	!	!	!	!LO:TX:b:Bi:t=Solo	!	!	!	!	!	!	!
8C/L	.	.	.	.	.	8G/	ha-	4e\	-i	4cc\	-i	2ryy	2ryy
8c\	.	.	.	.	.	8G/	-bi-	.	.	.	.	.	.
8B\	6	.	.	.	.	8G/	-ta-	4r	.	4r	.	.	.
8G\J	.	.	.	.	.	16A\LL	-re	.	.	.	.	.	.
.	.	.	.	.	.	16B\JJ	.	.	.	.	.	.	.
=51	=51	=51	=51	=51	=51	=51	=51	=51	=51	=51	=51	=51	=51
!LO:TX:a:t=P:mixed beam:problem	!	!	!	!	!	!	!	!	!	!	!	!	!
!	!	!LO:N:vis=00	!LO:N:vis=00	!LO:N:vis=00	!	!	!	!	!	!	!	!	!
!	!	!	!	!	!	!	!	!LO:N:vis=00	!	!LO:N:vis=00	!	!	!
8c\L	.	0r	0r	0r	.	8c\	fa-	0r	.	0r	.	2ryy	2ryy
8C/	.	.	.	.	.	8c\	-cit	.	.	.	.	.	.
!	!	!	!	!	!	!LO:LB:g=original	!	!	!	!	!	!	!
8BB/	6	.	.	.	.	16d\	ſte-	.	.	.	.	.	.
.	.	.	.	.	.	16d\	-ri-	.	.	.	.	.	.
8GG/J	.	.	.	.	.	16c\	-tem	.	.	.	.	.	.
.	.	.	.	.	.	16d\	in	.	.	.	.	.	.
=52	=52	=52	=52	=52	=52	=52	=52	=52	=52	=52	=52	=52	=52
8C/L	.	.	.	.	.	8e\	do-	.	.	.	.	2ryy	2ryy
8D/	.	.	.	.	.	8c\	-mo	.	.	.	.	.	.
8E/	.	.	.	.	.	8G/	mat-	.	.	.	.	.	.
8C/J	.	.	.	.	.	8c\	-r(em)	.	.	.	.	.	.
=53	=53	=53	=53	=53	=53	=53	=53	=53	=53	=53	=53	=53	=53
8F\L	.	.	.	.	.	(>16A\LL	fi-	.	.	.	.	2ryy	2ryy
.	.	.	.	.	.	16G\JJ)	.	.	.	.	.	.	.
8E\	.	.	.	.	.	(>16A\LL	-li-	.	.	.	.	.	.
.	.	.	.	.	.	16B\JJ)	.	.	.	.	.	.	.
8F\	.	.	.	.	.	(>16A\LL	-o-	.	.	.	.	.	.
.	.	.	.	.	.	16d\JJ)	.	.	.	.	.	.	.
8D\J	.	.	.	.	.	16c\	-rum	.	.	.	.	.	.
.	.	.	.	.	.	16d\	le	.	.	.	.	.	.
=54	=54	=54	=54	=54	=54	=54	=54	=54	=54	=54	=54	=54	=54
!LO:TX:a:t=P:mixed beam:problem	!	!	!	!	!	!	!	!	!	!	!	!	!
8G\L	.	.	.	.	.	8B\	tan-	.	.	.	.	2ryy	2ryy
8F\	6 5	.	.	.	.	16c\	-tem	.	.	.	.	.	.
.	.	.	.	.	.	16d\	le	.	.	.	.	.	.
8G\	.	.	.	.	.	8e\L	tan-	.	.	.	.	.	.
8GG/J	6 4	.	.	.	.	16d\L	.	.	.	.	.	.	.
.	5 3	.	.	.	.	16c\JJ	.	.	.	.	.	.	.
=55	=55	=55	=55	=55	=55	=55	=55	=55	=55	=55	=55	=55	=55
!	!	!	!	!	!	!	!	!LO:N:vis=00	!	!LO:N:vis=00	!	!	!
8C/L	.	8rg	8rdd	8r	.	8c\	-tem	0r	.	0r	.	2ryy	2ryy
!	!	!	!	!LO:TX:b:Bi:t=solo	!	!	!	!	!	!	!	!	!
8C/	.	8g/L	8ee\	8c\	Lau-	8rc	.	.	.	.	.	.	.
8D/	6	8b/	8ff\L	8B\	-da-	4rc	.	.	.	.	.	.	.
8E/J	6	8g/J	16ee\L	8c\	-te	.	.	.	.	.	.	.	.
.	.	.	16dd\JJ	.	.	.	.	.	.	.	.	.	.
!	!	!	!	!	!	!LO:PB:g=original	!	!	!	!	!	!	!
=56	=56	=56	=56	=56	=56	=56	=56	=56	=56	=56	=56	=56	=56
!	!	!	!	!	!	!LO:TX:a:B:t=3	!	!	!	!	!	!	!
!	!	!	!	!	!	!LO:N:vis=0	!	!	!	!	!	!	!
8F\L	.	8a\L	8cc\L	8A\	pu-	1r	.	.	.	.	.	2ryy	2ryy
8E\	6	8cc\	8gg\J	16A\	-e-	.	.	.	.	.	.	.	.
.	.	.	.	16G\	-ri	.	.	.	.	.	.	.	.
8F\	6	8cc\	16ff\LL	8A\	do-	.	.	.	.	.	.	.	.
.	.	.	16aa\	.	.	.	.	.	.	.	.	.	.
8D\J	.	8dd\J	16gg\	8B\	-mi-	.	.	.	.	.	.	.	.
.	.	.	16ff\JJ	.	.	.	.	.	.	.	.	.	.
!LO:LB:g=original	!	!	!LO:LB:g=original	!	!	!	!	!	!	!	!	!	!
=57	=57	=57	=57	=57	=57	=57	=57	=57	=57	=57	=57	=57	=57
8E\L	6	8cc\L	8ee\L	8c\	-num	.	.	.	.	.	.	2ryy	2ryy
8C\	.	8ee\J	8gg\	8E\	lau-	.	.	.	.	.	.	.	.
8D\	6	8dd\L	8ff\	8F\	-da-	.	.	.	.	.	.	.	.
8E\J	6	16cc\L	8ee\J	8G\	-te	.	.	.	.	.	.	.	.
.	.	16b\JJ	.	.	.	.	.	.	.	.	.	.	.
=58	=58	=58	=58	=58	=58	=58	=58	=58	=58	=58	=58	=58	=58
!LO:TX:a:t=P:mixed beam:problem	!	!LO:TX:a:t=P:mixed beam:problem	!	!	!	!	!	!	!	!	!	!	!
8F\L	6 5\	8a/L	8dd\L	(>16A\LL	no-	2r	.	.	.	.	.	2ryy	2ryy
.	.	.	.	16B\JJ)	.	.	.	.	.	.	.	.	.
8D\	.	8ff\	8ccc\	(>16c\LL	-men	.	.	.	.	.	.	.	.
!	!	!	!	!LO:LB:g=original	!	!	!	!	!	!	!	!	!
.	.	.	.	16F\JJ)	.	.	.	.	.	.	.	.	.
8G\	.	8dd\	8ccc\	8G\	do-	.	.	.	.	.	.	.	.
8GG/J	5 4	8gg\J	8bb\J	8GG/	-mi-	.	.	.	.	.	.	.	.
.	x 3	.	.	.	.	.	.	.	.	.	.	.	.
=59	=59	=59	=59	=59	=59	=59	=59	=59	=59	=59	=59	=59	=59
4C/	.	4ee\	4ccc\	4C/	-ni	4rc	.	4r	.	4r	.	2ryy	2ryy
!	!	!	!	!LO:TX:b:Bi:t=Tutti	!	!LO:TX:a:Bi:t=Tutti	!	!	!	!	!	!	!
8c\L	.	16ee\LL	16gg\LL	8c\	Glo-	8c\	Glo-	8g\	Glo-	8ee\	Glo-	.	.
.	.	16ee\	16gg\	.	.	.	.	.	.	.	.	.	.
8c\J	.	16ee\	16gg\	16c\	-ri-	16c\	-ri-	16g\	-ri-	16ee\	-ri-	.	.
.	.	16ee\JJ	16gg\JJ	16c\	-a	16c\	-a	16g\	-a	16ee\	-a	.	.
=60	=60	=60	=60	=60	=60	=60	=60	=60	=60	=60	=60	=60	=60
8B\L	6	16dd\LL	16gg\LL	8B\	Pa-	8d\	Pa-	8g\	Pa-	8dd\	pa-	2ryy	2ryy
.	.	16dd\	16gg\	.	.	.	.	.	.	.	.	.	.
8B\	.	16dd\	16gg\	8B\	-tri	8d\	-tri	8g\	-tri	8dd\	-tri,	.	.
.	.	16dd\JJ	16gg\JJ	.	.	.	.	.	.	.	.	.	.
!	!	!	!	!	!	!	!	!LO:PB:g=original	!	!	!	!	!
8A\	6\	16ff#X\LL	16aa\LL	8A\	glo-	8A/	glo-	8f#X\	glo-	8cc\	glo-	.	.
.	.	16ff#\	16aa\	.	.	.	.	.	.	.	.	.	.
8A\J	.	16cc\	16ff#X\	16A\	-ri-	16A/	-ri-	16f#\	-ri-	16cc\	-ri-	.	.
.	.	16cc\JJ	16ff#\JJ	16A\	-a	16A/	-a	16f#\	-a	16cc\	-a	.	.
!	!	!	!	!	!	!	!	!	!	!LO:LB:g=original	!	!	!
=61	=61	=61	=61	=61	=61	=61	=61	=61	=61	=61	=61	=61	=61
!LO:TX:a:t=P:mixed beam:problem	!	!	!	!	!	!	!	!	!	!	!	!	!
8G\L	.	16dd\LL	16gg\LL	8G\	Fi-	8B\	Fi-	8g\	Fi-	8dd\	fi-	2ryy	2ryy
.	.	16b\	16dd\	.	.	.	.	.	.	.	.	.	.
8G\	.	16b\	16dd\	16G\	-li-	16B\	-li-	16g\	-li-	16dd\	-li-	.	.
.	.	16b\JJ	16dd\JJ	16G\	-o	16B\	-o	16g,<\	-o	16dd\	-o,	.	.
8GG/	6	16dd\LL	16gg\LL	8G\	et	8B\	et	8g\	et	8dd\	et	.	.
.	.	16dd\	16gg\	.	.	.	.	.	.	.	.	.	.
8AA/J	.	16cc\	16ff#X\	8A\	spi-	8c\	spi-	8f#X\	spi-	8cc\	spi-	.	.
.	.	16cc\JJ	16ff#\JJ	.	.	.	.	.	.	.	.	.	.
=62	=62	=62	=62	=62	=62	=62	=62	=62	=62	=62	=62	=62	=62
8BB/L	6 x	16b\LL	16gg\LL	8B\	-ri-	8d\	-ri-	8g\	-ri-	8b\	-ri-	2ryy	2ryy
.	.	16b\	16gg\	.	.	.	.	.	.	.	.	.	.
8C/	6 x	16ee\	16aa\	16c\	-tu-	16e\	-tu-	16g\	-tu-	16b\	-tu-	.	.
.	5 x	16ee\JJ	16gg\JJ	16A\	-i	16e\	-i	16g\	-i	16a\	-i	.	.
!	!	!	!	!LO:TX:a:t=P:mixed beam:problem	!	!	!	!	!	!	!	!	!
8D/	5 4	16a\LL	16gg\LL	8d\L	ſan-	4d\	ſan-	(>8g\L	ſan-	4a\	ſan-	.	.
.	x #	16a\	16ff#X\	.	.	.	.	.	.	.	.	.	.
8DD/J	.	16dd\	16ff#\	8D/J	.	.	.	8f#X\J)	.	.	.	.	.
.	.	16dd\JJ	16ff#\JJ	.	.	.	.	.	.	.	.	.	.
!	!	!LO:LB:g=original	!	!LO:LB:g=original	!	!	!	!	!	!	!	!	!
=63	=63	=63	=63	=63	=63	=63	=63	=63	=63	=63	=63	=63	=63
!LO:TX:a:t=P:mixed beam:problem	!	!	!	!	!	!	!	!	!	!	!	!	!
!	!	!	!LO:SIC:s=16gg:v	!	!	!	!	!	!	!	!	!	!
8GG\L	.	16b\LL	16ff\LL	8G,<\	-cto	8d\	-cto	8g,<\	-cto	8g/	-cto,	2ryy	2ryy
.	.	16b\	16dd\	.	.	.	.	.	.	.	.	.	.
!	!	!	!	!	!	!LO:LB:g=original	!	!	!	!	!	!	!
8G\	.	16b\	16dd\	16G\	ſi-	16G/	ſi-	16d\	ſi-	16b\	Si-	.	.
.	.	16b\JJ	16dd\JJ	16G\	-cut	16G/	-cut	16d\	-cut	16b\	-cut	.	.
8Fn\	6 4	16b\LL	16dd\LL	16Fn\	e-	16d\	e-	16g\	e-	16b\	e-	.	.
.	.	16b\	16dd\	16F\	-rat	16d\	-rat	16g\	-rat	16b\	-rat	.	.
8F\J	.	16dd\	16gg\	16F\	in	16d\	in	16g\	in	16b\	in	.	.
.	.	16dd\JJ	16gg\JJ	16F\	prin-	16d\	prin-	16g\	prin-	16b\	prin-	.	.
!	!	!	!LO:LB:g=original	!	!	!	!	!	!	!	!	!	!
=64	=64	=64	=64	=64	=64	=64	=64	=64	=64	=64	=64	=64	=64
8E\L	6	16cc\LL	16gg\LL	8E\	-ci-	8e\	-ci-	8.g\	-ci-	8cc\	-ci-	2ryy	2ryy
.	.	16cc\	16gg\	.	.	.	.	.	.	.	.	.	.
8D\	.	16ff\	16bb\	8D\	-pi-	8f\	-pi-	.	.	8b\	-pi-	.	.
.	.	16ff\JJ	16bb\JJ	.	.	.	.	16f\	-pi-	.	.	.	.
!	!	!	!	!	!	!	!	!LO:LB:g=original	!	!	!	!	!
8E\	6	16cc\LL	16gg\LL	8E\	-o	8e\	-o	8g\	-o	8cc\	-o	.	.
.	.	16cc\	16gg\	.	.	.	.	.	.	.	.	.	.
8C\J	6	16ee\	16gg\	8C/	et	8e\	et	8g\	et	8ee\	et	.	.
.	.	16ee\JJ	16gg\JJ	.	.	.	.	.	.	.	.	.	.
!	!	!	!	!	!	!	!	!	!	!LO:TX:a:t=P:w źródle po kresce taktowej najprawdopodobniej przebita z drugiej strony pauza (longa):problem	!	!	!
!	!	!	!	!	!	!	!	!	!	!LO:LB:g=original	!	!	!
=65	=65	=65	=65	=65	=65	=65	=65	=65	=65	=65	=65	=65	=65
8F\L	.	16cc\LL	16aa\LL	8F\	n(un)c	8f\	n(un)c	8a\	nunc	8cc\	nunc,	2ryy	2ryy
.	.	16cc\	16aa\	.	.	.	.	.	.	.	.	.	.
8E\	6	16gg\	16ccc\	8E\	et	8c\	et	8g\	et	8cc\	et	.	.
.	.	16gg\JJ	16ccc\JJ	.	.	.	.	.	.	.	.	.	.
8F\	.	16ff\LL	16aa\LL	8F\	ſem-	8f\	ſem-	8a\	ſem-	8dd\	ſem-	.	.
.	.	16ff\	16aa\	.	.	.	.	.	.	.	.	.	.
8D\J	.	16ff\	16aa\	8C/	-per	8f\	-per	8a\	-per	8ff\	-per,	.	.
.	.	16ff\JJ	16aa\JJ	.	.	.	.	.	.	.	.	.	.
=66	=66	=66	=66	=66	=66	=66	=66	=66	=66	=66	=66	=66	=66
8G\L	.	16dd\LL	16bb\LL	8G\	et	8B\	et	8g\	et	8dd\	et	2ryy	2ryy
.	.	16dd\	16bb\	.	.	.	.	.	.	.	.	.	.
8F\	4 2	16dd\	16bb\	8F\	in	8B\	in	8g\	in	8dd\	in	.	.
.	.	16dd\JJ	16bb\JJ	.	.	.	.	.	.	.	.	.	.
8E\	6 x	16ee\LL	16gg\LL	8E\	ſe-	8c\	ſe-	8g\	ſe-	8ee\	ſe-	.	.
.	.	16ee\	16gg\	.	.	.	.	.	.	.	.	.	.
8C\J	.	16ee\	16gg\	16D/	-cu-	16c\	-cu-	16g\	-cu-	16ee\	-cu-	.	.
.	.	16ee\JJ	16gg\JJ	16C/	-la	16c\	-la	16g\	-la	16ee\	-la	.	.
!	!	!	!	!LO:LB:g=original	!	!LO:LB:g=original	!	!	!	!	!	!	!
=67	=67	=67	=67	=67	=67	=67	=67	=67	=67	=67	=67	=67	=67
8F\L	6	16ff\LL	16aa\LL	8F\	ſe-	8A\	ſe-	8a\	ſe-	8cc\	ſe-	2ryy	2ryy
.	.	16ff\	16cc\	.	.	.	.	.	.	.	.	.	.
!	!	!LO:SIC:s=16gg:v	!LO:SIC:s=16b:v	!	!	!	!	!	!	!	!	!	!
8G\	6	16ff\	16cc\	8G\	-cu-	8B\	-cu-	8g\	-cu-	8ee\	-cu-	.	.
!	!	!LO:SIC:s=16gg:v	!LO:SIC:s=16b:v	!	!	!	!	!	!	!	!	!	!
.	.	16ff\JJ	16cc\JJ	.	.	.	.	.	.	.	.	.	.
8A\	6	16cc\LL	16cc\LL	8A\	-lo-	8c\	-lo-	8f\	-lo-	8cc\	-lo-	.	.
.	.	16cc\	16cc\	.	.	.	.	.	.	.	.	.	.
!	!	!	!	!	!	!LO:TX:a:t=P:w źródle prawdopodobnie wrpowadzone poprawki przez skryptora:problem	!	!	!	!	!	!	!
8E\J	.	16cc\	16cc\	8E\	-rum	[>16c\LL	-rum	8g\	-rum	8ee\	-rum	.	.
.	.	16cc\JJ	16cc\JJ	.	.	16c\JJ]	.	.	.	.	.	.	.
!LO:LB:g=original	!	!	!	!	!	!	!	!	!	!	!	!	!
=68	=68	=68	=68	=68	=68	=68	=68	=68	=68	=68	=68	=68	=68
!LO:TX:a:t=P:mixed beam:problem	!	!	!	!	!	!	!	!	!	!	!	!	!
8F\L	.	16cc\LL	16cc\LL	8F\	a-	8f\	a-	8a\	a-	8b\	a-	2ryy	2ryy
.	.	16ee\	16ccc\	.	.	.	.	.	.	.	.	.	.
8C\	.	16ee\	16ccc\	8C/	-men	(>16e\LL	-men	8g\	-men	8cc\	-men	.	.
.	.	16ee\JJ	16ccc\JJ	.	.	16d\JJ)	.	.	.	.	.	.	.
!	!	!	!	!LO:TX:a:t=P:mixed beam:problem	!	!	!	!	!	!	!	!	!
8G\	.	16gg\LL	16ccc\LL	8G\L	a-	4d\	a-	4g\	a-	(>8cc\L	a-	.	.
.	.	16gg\	16ccc\	.	.	.	.	.	.	.	.	.	.
8GG/J	5 4	16gg\	16bb\	8GG/J	.	.	.	.	.	8dd\J)	.	.	.
.	x 3	16gg\JJ	16bb\JJ	.	.	.	.	.	.	.	.	.	.
=69	=69	=69	=69	=69	=69	=69	=69	=69	=69	=69	=69	=69	=69
4C/	.	4ee\	4ccc\	4C/	-men	4c\	-men	4g\	-men	4ee\	-men	2ryy	2ryy
4r	.	4r	4r	4r	.	4rc	.	4r	.	4rdd	.	.	.
==	==	==	==	==	==	==	==	==	==	==	==	==	==
*-	*-	*-	*-	*-	*-	*-	*-	*-	*-	*-	*-	*-	*-
!!title: @{OTL};
!!!RDF**kern: > = above
!!!RDF**kern: < = below
!!!RDF**kern: i = editorial accidental
!!!EED: Wojciech Jakubiak-Danek
!!!EST: 2020-11-09
!!!URL-scan: http://bc.bdsandomierz.pl/dlibra/publication/1610/edition/1578/content
!!!ONB-nifc: UWAGA: części Vespere: Domine ad adiuvandum, Dixit dominus, Confitebor, Beatus vir, Laudate pueri, Credidi, Magnificat
!!!ENC: Tomasz Grochalski
!!!END: 2020-05-08
